lib/flags/m/ZAF.svg

<svg xmlns="http://www.w3.org/2000/svg" fill="none" viewBox="0 0 20 15"><mask id="ZAF_svg__a" width="20" height="15" x="0" y="0" mask-type="alpha" maskUnits="userSpaceOnUse"><path fill="#fff" d="M0 0H20V15H0z"/></mask><g mask="url(#ZAF_svg__a)"><path fill="#F7FCFF" fill-rule="evenodd" d="M0 0H20V15H0V0Z" clip-rule="evenodd"/><path fill="#E31D1C" fill-rule="evenodd" d="M0 0V5H20V0H0Z" clip-rule="evenodd"/><path fill="#3D58DB" fill-rule="evenodd" d="M0 10V15H20V10H0Z" clip-rule="evenodd"/><mask id="ZAF_svg__b" width="24" height="24" x="-2" y="-4.25" fill="#000" maskUnits="userSpaceOnUse"><path fill="#fff" d="M-2-4.25H22V19.75H-2z"/><path fill-rule="evenodd" d="M9.64286 6.25L0 -1.25V16.25L9.64286 8.75H20V6.25H9.64286Z" clip-rule="evenodd"/></mask><path fill="#5EAA22" fill-rule="evenodd" d="M9.64286 6.25L0 -1.25V16.25L9.64286 8.75H20V6.25H9.64286Z" clip-rule="evenodd"/><path fill="#F7FCFF" d="M0 -1.25L0.767426 -2.23669L-1.25 -3.8058V-1.25H0ZM9.64286 6.25L8.87543 7.23669L9.21397 7.5H9.64286V6.25ZM0 16.25H-1.25V18.8058L0.767426 17.2367L0 16.25ZM9.64286 8.75V7.5H9.21397L8.87543 7.76331L9.64286 8.75ZM20 8.75V10H21.25V8.75H20ZM20 6.25H21.25V5H20V6.25ZM-0.767426 -0.26331L8.87543 7.23669L10.4103 5.26331L0.767426 -2.23669L-0.767426 -0.26331ZM1.25 16.25V-1.25H-1.25V16.25H1.25ZM8.87543 7.76331L-0.767426 15.2633L0.767426 17.2367L10.4103 9.73669L8.87543 7.76331ZM20 7.5H9.64286V10H20V7.5ZM18.75 6.25V8.75H21.25V6.25H18.75ZM9.64286 7.5H20V5H9.64286V7.5Z" mask="url(#ZAF_svg__b)"/><path fill="#272727" stroke="#FECA00" stroke-width="1.25" d="M0.375 3.25L-0.625 2.5V3.75V11.25V12.5L0.375 11.75L5.375 8L6.04167 7.5L5.375 7L0.375 3.25Z"/></g></svg>

<svg xmlns="http://www.w3.org/2000/svg" fill="none" viewBox="0 0 20 15"><mask id="ZAF_svg__a" width="20" height="15" x="0" y="0" maskUnits="userSpaceOnUse"><path fill="#fff" d="M0 0h20v15H0z"/></mask><g mask="url(#ZAF_svg__a)"><path fill="#F7FCFF" fill-rule="evenodd" d="M0 0h20v15H0V0z" clip-rule="evenodd"/><path fill="#E31D1C" fill-rule="evenodd" d="M0 0v5h20V0H0z" clip-rule="evenodd"/><path fill="#3D58DB" fill-rule="evenodd" d="M0 10v5h20v-5H0z" clip-rule="evenodd"/><mask id="ZAF_svg__b" width="24" height="24" x="-2" y="-4.25" fill="#000" maskUnits="userSpaceOnUse"><path fill="#fff" d="M-2-4.25h24v24H-2z"/><path fill-rule="evenodd" d="M9.643 6.25L0-1.25v17.5l9.643-7.5H20v-2.5H9.643z" clip-rule="evenodd"/></mask><path fill="#5EAA22" fill-rule="evenodd" d="M9.643 6.25L0-1.25v17.5l9.643-7.5H20v-2.5H9.643z" clip-rule="evenodd"/><path fill="#F7FCFF" d="M0-1.25l.767-.987-2.017-1.569v2.556H0zm9.643 7.5l-.768.987.339.263h.429V6.25zM0 16.25h-1.25v2.556l2.017-1.57L0 16.25zm9.643-7.5V7.5h-.429l-.339.263.768.987zM20 8.75V10h1.25V8.75H20zm0-2.5h1.25V5H20v1.25zM-.767-.263l9.642 7.5 1.535-1.974-9.643-7.5L-.767-.263zM1.25 16.25v-17.5h-2.5v17.5h2.5zm7.625-8.487l-9.642 7.5 1.534 1.974 9.643-7.5-1.535-1.974zM20 7.5H9.643V10H20V7.5zm-1.25-1.25v2.5h2.5v-2.5h-2.5zM9.643 7.5H20V5H9.643v2.5z" mask="url(#ZAF_svg__b)"/><path fill="#272727" stroke="#FECA00" stroke-width="1.25" d="M.375 3.25l-1-.75v10l1-.75 5-3.75.667-.5-.667-.5-5-3.75z"/></g></svg>
